X: 11476
T: Echoes Of Killarney
R: slide
M: 12/8
K: Amajor
|:AEA A2B c2e faf|e2c cBc a2c cBc|
ABA A2B c2e faf|1 e2c BcB ABA A (3EFG:|2 e2c BcB ABA Ace||
|:aga f2e f2g a2f|e2c cBc e2c cBc|
a2g fec efg a2f|1 e2c BcB ABA ABc:|2 cec BcB ABA A3||

